64x64/apps/applications-haskell.svg

<svg height="64" width="64" xmlns="http://www.w3.org/2000/svg"><rect height="52" opacity=".2" rx="2.8" width="52" x="6" y="7"/><rect fill="#f4f4f7" height="52" rx="2.8" width="52" x="6" y="6"/><path d="m13 15 10 18-10 18h6l10-18-10-18zm10 0 10 18-10 18h6l7-12.602 7 12.602h6l-20-36zm16.668 12 2.222 4h9.11v-4zm4.442 8 2.222 4h4.668v-4z" opacity=".1"/><path d="m13 14 10 18-10 18h6l10-18-10-18zm26.668 12 2.222 4h9.11v-4zm4.442 8 2.222 4h4.668v-4z" fill="#8b82a4"/><path d="m23 14 10 18-10 18h6l7-12.602 7 12.602h6l-20-36z" fill="#5f5088"/><path d="m8.8 6c-1.55 0-2.8 1.25-2.8 2.8v1c0-1.55 1.25-2.8 2.8-2.8h46.4a2.796 2.796 0 0 1 2.8 2.8v-1c0-1.55-1.25-2.8-2.801-2.8h-46.398z" fill="#f4f4f7" opacity=".2"/></svg>

<svg height="64" width="64" xmlns="http://www.w3.org/2000/svg">
    <rect height="52" opacity=".2" rx="2.8" width="52" x="6" y="7"/>
    <rect fill="#f4f4f7" height="52" rx="2.8" width="52" x="6" y="6"/>
    <path d="m13 15 10 18-10 18h6l10-18-10-18zm10 0 10 18-10 18h6l7-12.602L43 51h6L29 15zm16.668 12 2.222 4H51v-4zm4.442 8 2.222 4H51v-4z" opacity=".1"/>
    <path d="m13 14 10 18-10 18h6l10-18-10-18zm26.668 12 2.222 4H51v-4zm4.442 8 2.222 4H51v-4z" fill="#8b82a4"/>
    <path d="m23 14 10 18-10 18h6l7-12.602L43 50h6L29 14z" fill="#5f5088"/>
    <path d="M8.8 6C7.25 6 6 7.25 6 8.8v1C6 8.25 7.25 7 8.8 7h46.4A2.796 2.796 0 0 1 58 9.8v-1C58 7.25 56.75 6 55.199 6H8.801z" fill="#f4f4f7" opacity=".2"/>
</svg>
